app/assets/images/payment_icons/cleverpay.svg

<svg width="38" height="24" viewBox="0 0 38 24" fill="none" xmlns="http://www.w3.org/2000/svg">
<path d="M35 0H3C1.34315 0 0 1.34315 0 3V21C0 22.6569 1.34315 24 3 24H35C36.6569 24 38 22.6569 38 21V3C38 1.34315 36.6569 0 35 0Z" fill="white"/>
<path d="M35 1H3C1.89543 1 1 1.89543 1 3V21C1 22.1046 1.89543 23 3 23H35C36.1046 23 37 22.1046 37 21V3C37 1.89543 36.1046 1 35 1Z" fill="white"/>
<path d="M19 21C23.9706 21 28 16.9706 28 12C28 7.02944 23.9706 3 19 3C14.0294 3 10 7.02944 10 12C10 16.9706 14.0294 21 19 21Z" fill="#3E64FF"/>
<path d="M17.8689 12.8498C17.8934 12.8716 17.9231 12.887 17.9552 12.8945C17.9874 12.9021 18.021 12.9015 18.0529 12.8929C18.085 12.8844 18.1143 12.868 18.1384 12.8454C18.1625 12.8228 18.1804 12.7947 18.1908 12.7635L19.5551 7.52861C19.5634 7.49674 19.5631 7.46339 19.5543 7.43178C19.5455 7.40022 19.5284 7.37151 19.5049 7.34852C19.4813 7.32558 19.452 7.3091 19.4199 7.3008C19.3878 7.29254 19.354 7.29268 19.3219 7.30129L14.1584 8.68482C14.1262 8.69344 14.0969 8.71017 14.0732 8.73339C14.0495 8.7566 14.0324 8.78553 14.0234 8.81719C14.0145 8.84888 14.014 8.88227 14.0222 8.91406C14.0304 8.94584 14.0468 8.97491 14.0699 8.99835L17.8689 12.8498Z" fill="#00F9FF"/>
<path d="M20.1321 11.1565C20.1076 11.1346 20.078 11.1193 20.0458 11.1117C20.0137 11.1042 19.9801 11.1047 19.9481 11.1133C19.9161 11.1219 19.8867 11.1382 19.8627 11.1608C19.8386 11.1834 19.8206 11.2116 19.8103 11.2427L18.4459 16.4776C18.4377 16.5095 18.4379 16.5428 18.4468 16.5745C18.4556 16.606 18.4726 16.6347 18.4962 16.6577C18.5198 16.6807 18.5491 16.6971 18.5812 16.7054C18.6133 16.7137 18.6471 16.7136 18.6792 16.7049L23.8426 15.3214C23.8748 15.3128 23.9042 15.2961 23.9279 15.2729C23.9516 15.2496 23.9687 15.2207 23.9777 15.189C23.9866 15.1573 23.9871 15.1239 23.9789 15.0922C23.9707 15.0604 23.9543 15.0313 23.9312 15.0078L20.1321 11.1565Z" fill="white"/>
</svg>

<svg width="38" height="24" fill="none" xmlns="http://www.w3.org/2000/svg"><path d="M35 0H3a3 3 0 0 0-3 3v18a3 3 0 0 0 3 3h32a3 3 0 0 0 3-3V3a3 3 0 0 0-3-3Z" fill="#fff"/><path d="M35 1H3a2 2 0 0 0-2 2v18a2 2 0 0 0 2 2h32a2 2 0 0 0 2-2V3a2 2 0 0 0-2-2Z" fill="#fff"/><path d="M19 21a9 9 0 1 0 0-18 9 9 0 0 0 0 18Z" fill="#3E64FF"/><path d="M17.869 12.85a.197.197 0 0 0 .184.043.2.2 0 0 0 .138-.13l1.364-5.234a.186.186 0 0 0-.135-.228.193.193 0 0 0-.098 0l-5.164 1.384a.193.193 0 0 0-.135.132.186.186 0 0 0 .047.181l3.799 3.852Z" fill="#00F9FF"/><path d="M20.132 11.156a.197.197 0 0 0-.184-.043.2.2 0 0 0-.138.13l-1.364 5.235a.186.186 0 0 0 .135.227.192.192 0 0 0 .098 0l5.164-1.384a.193.193 0 0 0 .135-.132.186.186 0 0 0-.047-.181l-3.799-3.851Z" fill="#fff"/></svg>
